X: 16
T: Merrily Kiss The Quaker
Z: UPipes & harp
S: https://thesession.org/tunes/70#setting50089
R: slide
M: 12/8
L: 1/8
K: Gmaj
|:D | GAB D2 B c2 A BGE | GAB DEG ~A3 {c}AGE |
GAB D2 B c2 {dc}A {c}BGE | GAB {A} D2 E ~G3 {A}G2:|
|:A | {c}BGG AGG {c}BGG AGE | GAB DEG ~A3 {c}AGA|
~B2 G ~A2 G {c}BGG {B}AGE | GAB {A} D2 E ~G3 {A}G2:|
|:d | ~g3 ~a3 bge dBd | ~g3 {a}gab ~a3 {b}agf |
~g3 ~f3 ~e3 dBA | GAB ~D2 E ~G3 {A}G2:|

